X:1
T:117 - Espírito Santo
T:Letra: John Law (1813-1869)
T:Música: Henri Abraham Cesar Malan (1787-1864)
M:2/2
L:1/4
Q:1/2=90
K:G
V:1
"G"G2G2 | (GD) (GB) | "D7"d2 c2 | "G"B2z2 | B2 B2 | "C"(BA) (cA) | "G/D"G2 "D7"(FA) | "G"G2z2 | B2B2 | "D"A2 (AB) | "D7"c2d2 | "G"(c2B2) | d2d2 | "C"e2d2 | "G"(dc) (cB) | "D"(B2A2) | "G"G2A2 | B2 "C"(cA) | "G/D"G2"D7"F2 | "G"G2z2 |]
w: 1.~Ó di-vi_no_ Pre-cep-tor, Mos-tra-nos_ o_ Sal-va_dor! Ó Tu, bom Con_so-la-dor,_ En-che-nos de san_toa_mor!_  En-che-nos de_ san-toa-mor! 
w: 2.~Tu fi-el_ Ins_tru-i-dor, Com ce-les_ti_al fa_vor, Mos-tra co-mo_ Tea-do-rar,_ Co-mo cul-toa Deus_ pres_tar!_ Co-mo cul-toa_ Deus pres-tar! 
w: 3.~San-toEs-pí_ri_to de Deus, En-che de_ fer_vor os_ teus, Pra can-ta-rem_ o lou-vor_ De Je-sus, o Sal_va_dor!_ De Je-sus, o_ Sal-va-dor! 
w: 4.~Vem, Es-pí_ri_to ve-raz!  Es-taes-cu_ri_dão des_faz! En-che-nos de_ san-ta luz,_ Gui-a to-dos a_ Je_sus!_ Gui-a to-dos_ a Je-sus!          
W: 
W: 
W: 1. Ó divino Preceptor,
W: Mostra-nos o Salvador!
W: Ó Tu, bom Consolador,
W: Enche-nos de santo amor!
W: Enche-nos de santo amor!
W: 
W: 2. Tu fiel Instruidor,
W: Com celestial favor,
W: Mostra como Te adorar,
W: Como culto a Deus prestar!
W: Como culto a Deus prestar!
W: 
W: 
W: 
W: 3. Santo Espírito de Deus,
W: Enche de fervor os teus,
W: Pra cantarem o louvor
W: De Jesus, o Salvador!
W: De Jesus, o Salvador!
W: 
W: 4. Vem, Espírito veraz! 
W: Esta escuridão desfaz!
W: Enche-nos de santa luz,
W: Guia todos a Jesus!
W: Guia todos a Jesus!
W:         
W: 				         
W:           





